!!!COM: Beethoven, Ludwig van
!!!CDT: 1770///-1827///
!!!OTL: Piano Sonata no. 3 in C major
!!!ODT: 1794///-1795///
!!!ODE: Joseph Haydn
!!!OMD: Allegro con brio
!!!OPS: 2
!!!ONM: 3
!!!OMV: 1
!!!AGN: Sonata
**kern	**kern	**dynam
*staff2	*staff1	*staff1
*Ipiano	*Ipiano	*Ipiano
*>[A,A1,A,A2,B]	*>[A,A1,A,A2,B]	*>[A,A1,A,A2,B]
*>norep[A,A2,B]	*>norep[A,A2,B]	*>norep[A,A2,B]
*clefF4	*clefG2	*clefG2
*k[]	*k[]	*k[]
*C:	*C:	*C:
*M4/4	*M4/4	*M4/4
*MM132	*MM132	*MM132
*>A	*>A	*>A
=1-	=1-	=1-
1C 1G	2c/ 2e/	p
.	(16B/ 16d/LL	.
.	16c/ 16e/	.
.	16B/ 16d/	.
.	16c/) 16e/JJ	.
.	8d'/ 8f'/L	.
.	8c'/ 8e'/J	.
=2	=2	=2
4GG'\ 4G'\	4B'/ 4d'/	.
4GG'\ 4G'\	4B'/ 4g'/	.
2r	2r	.
=3	=3	=3
1GG 1B	2d/ 2f/	.
.	(16c#/ 16e/LL	.
.	16d/ 16f/	.
.	16c#/ 16e/	.
.	16d/) 16f/JJ	.
.	8e'/ 8g'/L	.
.	8d'/ 8f'/J	.
=4	=4	=4
4C'\ 4G'\	4cn'/ 4e'/	.
4C'\ 4G'\	4e'/ 4cc'/	.
2r	2r	.
=5	=5	=5
*^	*^	*
[1G	4r	2cc/	2e\	p
.	(4C\	.	.	.
.	4D\	(16b/LL	2f\	.
.	.	16cc/	.	.
.	.	16b/	.	.
.	.	16cc/JJ)	.	.
.	4GG\)	8dd'/L	.	.
.	.	8b'/J	.	.
=6	=6	=6	=6	=6
4G/]	4r	4g/	2ry	.
[2.G/	(4C\	4e/ 4cc/	.	.
.	4D\	(16b/LL	2f\	.
.	.	16cc/	.	.
.	.	16b/	.	.
.	.	16cc/JJ)	.	.
.	4GG\)	8dd'/L	.	.
.	.	8b'/J	.	.
=7	=7	=7	=7	=7
2G/]	(4E\	4g/	2ry	.
.	4C\	4cc/	.	.
2A/	4F\	4d/	2c\ 2d\	.
.	4D\)	4a/	.	.
*v	*v	*	*	*
=8	=8	=8	=8
4G\	(4d/	2B\	.
4GG/	4g/	.	.
(12C\L	4c/) 4e/	2ry	.
12G\	.	.	.
12F#\J)	.	.	.
12Fn'\L	4r	.	.
12E'\	.	.	.
12D'\J	.	.	.
=9	=9	=9	=9
*^	*	*	*
4r	2C\	4r	4ry	.
[2G/	.	(2g/	4e\	.
.	(16BB\LL	.	4d\	.
.	16C\	.	.	.
.	16BB\	.	.	.
.	16C\JJ)	.	.	.
4G/]	8D\L	4f/)	4d\	.
.	8BB'\J	.	.	.
=10	=10	=10	=10	=10
4G/	4GG\	4c/ (4e/	4ry	.
[2G/	4C\	2g/	4e\	.
.	(16BB\LL	.	4d\	.
.	16C\	.	.	.
.	16BB\	.	.	.
.	16C\JJ)	.	.	.
4G/]	8D'\L	4f/)	4d\	.
.	8BB'\J	.	.	.
*v	*v	*	*	*
*	*v	*v	*
=11	=11	=11
4GG\	4G/ 4c/ 4e/	.
2C\	4r	.
.	4A/ 4c/ 4e/ 4a/	.
[4FF#\	4r	.
=12	=12	=12
*^	*	*
2r	4FF#\]	4G/ 4c/ 4e/ 4g/	.
.	2GG\	4r	.
4D/ 4Fn/ 4G/ 4B/	.	4ry	.
4ry	4GGG\ 4GG\	4r	.
*v	*v	*	*
=13	=13	=13
4CC/ 4EE/ 4GG/ 4C/	16c/LL	ff
.	16e/	.
.	16g/	.
.	16cc/JJ	.
*clefG2	*	*
8c/L	16e\LL	.
.	16ee\	.
8c/J	16e\	.
.	16ee\JJ	.
4c/	16e\LL	.
.	16g\	.
.	16cc\	.
.	16ee\JJ	.
8e/L	16g\LL	.
.	16gg\	.
8e/J	16g\	.
.	16gg\JJ	.
=14	=14	=14
4e/	16g\LL	.
.	16cc\	.
.	16ee\	.
.	16gg\JJ	.
8g/L	16cc\LL	.
.	16ccc\	.
8g/J	16cc\	.
.	16ccc\JJ	.
4g/	16cc\LL	.
.	16ee\	.
.	16gg\	.
.	16ccc\JJ	.
8cc\L	16ee\LL	.
.	16eee\	.
8cc\J	16ee\	.
.	16eee\JJ	.
=15	=15	=15
8cc\L	16ee\LL	.
.	16eee\	.
8b\J	16dd\	.
.	16ddd\JJ	.
8b\L	16dd\LL	.
.	16ddd\	.
8a\J	16cc\	.
.	16ccc\JJ	.
8a/L	16cc\LL	.
.	16ccc\	.
8g/J	16b\	.
.	16bb\JJ	.
8g/L	16b\LL	.
.	16bb\	.
8f/J	16a\	.
.	16aa\JJ	.
=16	=16	=16
8f/L	16a\LL	.
.	16aa\	.
8e/J	16g\	.
.	16gg\JJ	.
8e/L	16g\LL	.
.	16gg\	.
8d/J	16f\	.
.	16ff\JJ	.
8d/L	16f\LL	.
.	16ff\	.
8c/J	16e\	.
.	16ee\JJ	.
8c/L	16e\LL	.
.	16ee\	.
8B/J	16d\	.
.	16dd\JJ	.
*clefF4	*	*
=17	=17	=17
4CC/ 4EE/ 4GG/ 4C/	16c/LL	.
.	16e/	.
.	16g/	.
.	16cc/JJ	.
*clefG2	*	*
8c/L	16e\LL	.
.	16ee\	.
8c/J	16e\	.
.	16ee\JJ	.
4c/	16e\LL	.
.	16g\	.
.	16cc\	.
.	16ee\JJ	.
8e/L	16g\LL	.
.	16gg\	.
8e/J	16g\	.
.	16gg\JJ	.
=18	=18	=18
4e/	16g\LL	.
.	16cc\	.
.	16ee\	.
.	16gg\JJ	.
8g/L	16cc\LL	.
.	16ccc\	.
8g/J	16cc\	.
.	16ccc\JJ	.
4g/	16cc\LL	.
.	16ee\	.
.	16gg\	.
.	16ccc\JJ	.
8cc\L	16ee\LL	.
.	16eee\	.
8cc\J	16ee\	.
.	16eee\JJ	.
=19	=19	=19
8cc/L	16ee\LL	.
.	16eee\	.
8b/	16dd\	.
.	16ddd\JJ	.
8g#/	16dd\LL	.
.	16ddd\	.
8a/J	16cc\	.
.	16ccc\JJ	.
8e/L	16b\LL	.
.	16bb\	.
8f/	16a\	.
.	16aa\JJ	.
8B/	16a\LL	.
.	16aa\	.
8c#/J	16gn\	.
.	16ggn\JJ	.
=20	=20	=20
8d/	16g\LL	.
.	16gg\	.
*clefF4	*	*
4D\	16f\	.
.	16ff\JJ	.
.	16f\LL	.
.	16ff\	.
8E\	16e\	.
.	16ee\JJ	.
4F\	16e/LL	.
.	16ee/	.
.	16d/	.
.	16dd/JJ	.
4F#\	16d/LL	.
.	16dd/	.
.	16c/	.
.	16cc/JJ	.
=21	=21	=21
16GG\LL	4B/ 4b/	.
16G\	.	.
16F#\	.	.
16G\JJ	.	.
16A\LL	4r	.
16G\	.	.
16F#\	.	.
16G\JJ	.	.
16Fn\LL	4r	.
16G\	.	.
16D\	.	.
16G\JJ	.	.
16F\LL	(8.bbt\L	.
16G\	.	.
16D\	.	.
16G\JJ	32aa\LL	.
.	32bb\JJJ	.
=22	=22	=22
16E\LL	4.ccc\)	.
16G\	.	.
16C\	.	.
16G\JJ	.	.
16E\LL	.	.
16G\	.	.
16C\	(32ccc\LLL	.
.	32bb\	.
16G\JJ	32aa\	.
.	32gg\JJJ)	.
16BB\LL	8ff'\L	.
16G\	.	.
16F#\	8dd\ (8ff\J	.
16G\JJ	.	.
16C\LL	8cc\ 8ee\L)	.
16G\	.	.
16F#\	8cc\ (8ee\J	.
16G\JJ	.	.
=23	=23	=23
16GG\LL	4b\ 4dd\)	.
16G\	.	.
16F#\	.	.
16G\JJ	.	.
16A\LL	4r	.
16G\	.	.
16F#\	.	.
16G\JJ	.	.
16Fn\LL	4r	.
16G\	.	.
16D\	.	.
16G\JJ	.	.
16F\LL	(8.bb\ 8.dddT\L	.
16G\	.	.
16D\	.	.
16G\JJ	32ccc\LL	.
.	32ddd\JJJ	.
=24	=24	=24
16C\LL	4.ccc\ 4.eee\)	.
16G\	.	.
16E\	.	.
16G\JJ	.	.
16C\LL	.	.
16G\	.	.
16F\	(48eee\LLL	.
.	48ddd\	.
.	48ccc\	.
16G\JJ	48bb\	.
.	48aa\	.
.	48gg\JJJ)	.
16BB\LL	8ff'\L	.
16G\	.	.
16F#\	8dd\ (8ff\J	.
16G\JJ	.	.
16C\LL	8ee\L)	.
16G\	.	.
16F#\	8cc\ (8ee\J	.
16G\JJ	.	.
=25	=25	=25
4GG/	16b\ 16dd\LL)	ff
.	16gg\	.
.	16ff#\	.
.	16ee\JJ	.
4r	16dd/LL	.
.	16cc/	.
.	16b/	.
.	16a/JJ	.
16r	16g/LL	.
16G\LL	16g/	.
16F#\	16f#X/	.
16E\JJ	16e/JJ	.
16D/LL	16d/LL	.
16C/	16c/	.
16BB/	16B/	.
16AA/JJ	16A/JJ	.
=26	=26	=26
4GG/	4G/	.
4r	4r	.
2r	2r	.
=27	=27	=27
(8G\L	(4ddS\	p
8B-\	.	.
8d\	8ee\L	.
8B-\J	8ff#\J	.
8d\L	8gg\L	.
8B-\	8aa\	.
8G\	8bb-\	.
8B-\J)	8dd\J)	.
=28	=28	=28
.	eeq/	.
(8G\L	(8dd\L	.
8A\	8cc#\)	.
8e\	8cc#'\	.
8A\J	8cc#'\J	.
8e\L	2cc#\	.
8A\	.	.
8G\	.	.
8A\J)	.	.
=29	=29	=29
(8F#\L	(8ccn\L	.
8A\	8ff#\	.
8d\	8aa\	.
8A\J	8ff#\J	.
8d\L	8ccc\L	.
8A\	8aa\	.
8F#\	8ff#\	.
8A\J)	8cc\J)	.
=30	=30	=30
(8Fn\L	(8bn\L	.
8G\	8aa-\	.
8d\	8gg\	.
8G\J	8ffn\J	.
8d\L	8ee-\L	.
8G\	8dd\	.
8F\	8cc\	.
8G\J)	8b\J)	.
=31	=31	=31
8E-\L	(4dd\	.
8G\	.	.
8c\	2cc^\	.
8G\J	.	.
8D\L	.	.
8G\	.	.
8B-\	[4b-^\	.
8G\J	.	.
=32	=32	=32
8C#\L	4b-\]	.
8E\	.	.
8A\	2a^/	.
8E\J	.	.
8A\L	.	.
8E\	.	.
8C#\	(4gg\)	.
8E\J	.	.
=33	=33	=33
(8D\L	8ff'\L)	.
8F\	(8aa\	.
8A\	8bb\	.
8F\J	8ccc\J	.
8A\L	8ddd\L	.
8F\	8eee\	.
8D\	8fff\	.
8F\J)	8aa\J)	.
=34	=34	=34
.	(bbq/	.
(8D\L	(8aa\L)	.
8E\	8gg#\)	.
8B\	8gg#'\	.
8E\J	8gg#'\J	.
8B\L	2gg#\	.
8E\	.	.
8D\	.	.
8E\J)	.	.
=35	=35	=35
(8C#\L	(8ggn\L	.
8E\	8aa\	.
8A\	8ccc#\	.
8E\J	8aa\J	.
8A\L	8eee\L	.
8E\	8ccc#\	.
8C#\	8aa\	.
8E\J)	8gg\J)	.
=36	=36	=36
(8Cn\L	(8ff#\L	.
8D\	8eee-\	.
8A\	8ddd\	.
8D\J	8ccc\J	.
8A\L	8bb-\L	.
8D\	8aa\	.
8C\	8gg\	.
8D\J)	8ff#\J)	.
=37	=37	=37
(8BB-\L	(4aa\	.
8D\	.	.
8G\	2gg^\	.
8D\J	.	.
8AA\L	.	.
8D\	.	.
8F\	[4ffn^\)	.
8D\J)	.	.
=38	=38	=38
(8GG#\L	4ff\]	.
8BB\	.	.
8E\	(2ee^\	.
8G#X\J	.	.
8B\L	.	.
8G#\	.	.
8E\	4ddd\)	.
8G#\J)	.	.
=39	=39	=39
8A\L	4ccc'\	f
8c\ 8e\	.	.
8c\ 8e\	(16aa\LL	.
.	16gg\	.
8c\ 8e\J	16ff\	.
.	16ee\JJ	.
8c\ 8e\L	16dd\LL	.
.	16cc\	.
8c\ 8e\	16b\	.
.	16a\JJ	.
8d\ 8e\	16g#\LL	.
.	16a\	.
8d\ 8e\J	16b\	.
.	16g#\JJ)	.
=40	=40	=40
8A\L	4a/	.
8c\ 8e\	.	.
8c\ 8e\	4r	.
8c\ 8e\J	.	.
8D\L	4f#'\ 4a'\ 4cc'\ 4dd'\ 4ff#'\	.
8c\ 8d\	.	.
8c\ 8d\	4r	.
8c\ 8d\J	.	.
=41	=41	=41
8G\L	4g'\ 4b-'\ 4dd'\ 4gg'\	f
8B-\ 8d\	.	.
8B-\ 8d\	(16gg\LL	.
.	16ffn\	.
8B-\ 8d\J	16ee-\	.
.	16dd\JJ	.
8B-\ 8d\L	16cc\LL	.
.	16b-\	.
8B-\ 8d\	16a\	.
.	16g\JJ	.
8c\ 8d\	16f#/LL	.
.	16g/	.
8c\ 8d\J	16a/	.
.	16f#/JJ)	.
=42	=42	=42
8G\L	4g'/	.
8B-\ 8d\	.	.
8B-\ 8d\	4r	.
8B-\ 8d\J	.	.
8E-\L	4cc#'\ 4gg'\ 4ccc#'\	.
8e-X\	.	.
8e-\	4r	.
8e-\J	.	.
=43	=43	=43
8D\ 8d\L	4dd'\ 4ff#'\ 4aa'\ 4ddd'\	f
8F#\ 8A\	.	.
8F#\ 8A\	(16ddd\LL	.
.	16ccc#\	.
8F#\ 8A\J	16bb\	.
.	16aa\JJ	.
8F#\ 8A\L	16gg\LL	.
.	16ff#\	.
8F#\ 8A\J	16ee\	.
.	16dd\JJ	.
8D\ 8en\L	16cc#\LL	.
.	16dd\	.
8G\ 8A\J	16ee\	.
.	16cc#\JJ)	.
=44	=44	=44
8D\ 8d\L	4dd'\	.
8F#\ 8A\	.	.
8F#\ 8A\	(16dd/LL	.
.	16cc#/	.
8F#\ 8A\J	16b/	.
.	16a/JJ	.
8F#\ 8A\L	16g/LL	.
.	16f#/	.
8F#\ 8A\J	16e/	.
.	16d/JJ	.
8D\L	16c#X/LL	.
.	16d/	.
8G\ 8A\J	16e/	.
.	16c#/JJ)	.
=45	=45	=45
4D\ 4F#\ 4A\	(8dS/L	p
.	8c#/	.
4r	8d/	.
.	8e/J	.
2r	8f#S/L	.
.	8e/	.
.	8f#/)	.
.	8g/J	.
=46	=46	=46
1r	(8aS\L	.
.	8g#\	.
.	8a\	.
.	8b\J	.
.	8dd\L	.
.	8ccn\	.
.	8b\	.
.	8a\J)	.
=47	=47	=47
1GG 1D	(8gn/L	.
.	8d/	.
.	8c#/	.
.	8d/J	.
.	8g/L	.
.	8d/	.
.	8b/	.
.	8d/J)	.
=48	=48	=48
*^	*	*
8r	1BB	(2dd\	.
8D/L	.	.	.
(8C#/	.	.	.
8D/J	.	.	.
8G/L	.	4b\	.
8D/	.	.	.
8B/	.	4g/)	.
8D/J)	.	.	.
=49	=49	=49	=49
(2cn/	1Cn	(8f#/L	.
.	.	8d/	.
.	.	8c#/	.
.	.	8d/J	.
4A/	.	8f#/L	.
.	.	8d/	.
4F#/)	.	8a/	.
.	.	8d/J)	.
=50	=50	=50	=50
8r	1AA	(2cc\	.
(8D/L	.	.	.
8C#/	.	.	.
8D/J	.	.	.
8F#/L	.	4a/	.
8D/	.	.	.
8A/	.	4f#/)	.
8D/J)	.	.	.
*v	*v	*	*
=51	=51	=51
1BB 1B	(8g/L	<
.	8d/	.
.	8c#/	.
.	8d/J	.
.	8g/L	.
.	8d/	.
.	8b/	.
.	8g/J)	.
=52	=52	=52
1GG 1D 1E 1G	(8dd\L	.
.	8b\	.
.	8gg\	.
.	8dd\J	.
.	8bb\L	.
.	8aa\	.
.	8gg\	.
.	8ff#\J	.
=53	=53	=53
1AA 1C# 1E 1G	8ee\L	>
.	8dd\	.
.	8cc#\	.
.	8b\J	.
.	8a/L	.
.	8g/	.
.	8f#/	.
.	8e/J)	.
=54	=54	=54
4D\ 4F#\	(8d/L	p
.	8c#/	.
4r	8d/	.
.	8e/J	.
2r	8d/L	.
.	8c#/	.
.	8Bn/	.
.	8A/J	.
=55	=55	=55
(8GG\L	4G/)	.
8D\	.	.
8C#\	4r	.
8D\J	.	.
8G\L	2r	.
8D\	.	.
8B\	.	.
8D\J)	.	.
=56	=56	=56
*^	*	*
(2d/	1BB	8r	.
.	.	(8ddW\L	p
.	.	8cc#\	.
.	.	8dd\J	.
4B/	.	8gg\L	.
.	.	8dd\	.
4G/)	.	8bb\	.
.	.	8dd\J	.
=57	=57	=57	=57
(8F#/L	1AA	(2ccc\)	.
8D/	.	.	.
8C#/	.	.	.
8D/J	.	.	.
8F#/L	.	4aa\	.
8D/	.	.	.
8A/	.	4ff#\)	.
8D/J)	.	.	.
=58	=58	=58	=58
2cn/	1Cn	8r	.
.	.	(8ddW\L	.
.	.	8cc#\	.
.	.	8dd\J	.
4A/	.	8ff#\L	.
.	.	8dd\	.
4F#/	.	8aa\	.
.	.	8dd\J)	.
*v	*v	*	*
=59	=59	=59
1BB 1D 1G	(8bb\L	<
.	8ggS\	.
.	8ff#\	.
.	8gg\J	.
.	8bb\L	.
.	8gg\	.
.	8ddd\	.
.	8bbt\J	.
=60	=60	=60
1GG 1D 1Fn 1B	8fffn\L	.
.	8ddd\	.
.	8bb\	.
.	8gg\J	.
.	8ff\L	.
.	8dd\	.
.	8b\	.
.	8f\J)	.
=61	=61	=61
4C\ 4E\ 4G\ 4c\	16e\LL	f
.	16g\	.
.	16cc\	.
.	16ee\JJ	.
*clefG2	*	*
8c/ 8e/L	16g\LL	.
.	16gg\	.
8c/ 8e/J	16g\	.
.	16gg\JJ	.
4c/ 4e/	16g\LL	.
.	16cc\	.
.	16ee\	.
.	16gg\JJ	.
8e/ 8g/L	16cc\LL	.
.	16ccc\	.
8e/ 8g/J	16cc\	.
.	16ccc\JJ	.
=62	=62	=62
4e/ 4g/	16cc\LL	.
.	16ee\	.
.	16gg\	.
.	16ccc\JJ	.
8g/ 8cc/L	16ee\LL	.
.	16eee\	.
8g/ 8cc/J	16ee\	.
.	16eee\JJ	.
4g/ 4cc/	16ee\LL	.
.	16eee\	.
.	16ccc\	.
.	16gg\JJ	.
4r	16ee\LL	.
.	16cc\	.
.	16g\	.
.	16e\JJ	.
*clefF4	*	*
=63	=63	=63
4C\ 4F#\ 4A\ 4c\	16f#\LL	f
.	16a\	.
.	16dd\	.
.	16ff#X\JJ	.
*clefG2	*	*
8c/ 8f#X/L	16a\LL	.
.	16aa\	.
8c/ 8f#/J	16a\	.
.	16aa\JJ	.
4c/ 4f#/	16a\LL	.
.	16dd\	.
.	16ff#\	.
.	16aa\JJ	.
8f#/ 8cc/L	16dd\LL	.
.	16ddd\	.
8f#/ 8cc/J	16dd\	.
.	16ddd\JJ	.
=64	=64	=64
4f#/ 4cc/	16dd\LL	.
.	16ff#\	.
.	16aa\	.
.	16ddd\JJ	.
8c/ 8f#/L	16a\LL	.
.	16aa\	.
8c/ 8f#/J	16a\	.
.	16aa\JJ	.
4c/ 4f#/	16a\LL	.
.	16aa\	.
.	16ff#\	.
.	16dd\JJ	.
4r	16a/LL	.
.	16f#X/	.
.	16d/	.
.	16A/JJ	.
*clefF4	*	*
=65	=65	=65
4BB\ 4D\ 4G\	16B/LL	f
.	16d/	.
.	16g/	.
.	16b/JJ	.
8G\ 8B\L	16d/LL	.
.	16dd/	.
8G\ 8B\J	16d/	.
.	16dd/JJ	.
4G\ 4B\	16d/LL	.
.	16g/	.
.	16b/	.
.	16dd/JJ	.
8B\ 8d\L	16g\LL	.
.	16gg\	.
8B\ 8d\J	16g\	.
.	16gg\JJ	.
=66	=66	=66
4B\ 4d\	16g\LL	.
.	16b\	.
.	16dd\	.
.	16gg\JJ	.
*clefG2	*	*
8d/ 8g/L	16b\LL	.
.	16bb\	.
8d/ 8g/J	16b\	.
.	16bb\JJ	.
4d/ 4g/	16b\LL	.
.	16dd\	.
.	16gg\	.
.	16bb\JJ	.
8g/ 8b/L	16dd\LL	.
.	16ddd\	.
8g/ 8b/J	16dd\	.
.	16ddd\JJ	.
=67	=67	=67
8g/ 8b/L	16dd\LL	.
.	16ddd\	.
8a#/J	16cc#\	.
.	16ccc#\JJ	.
8ccn/L	16ee\LL	.
.	16eee\	.
8b/J	16dd\	.
.	16ddd\JJ	.
8g/ 8b/L	16dd\LL	.
.	16ddd\	.
8a#/J	16cc#\	.
.	16ccc#\JJ	.
8cc/L	16ee\LL	.
.	16eee\	.
8b/J	16dd\	.
.	16ddd\JJ	.
=68	=68	=68
8g/ 8b/L	16dd\LL	.
.	16ddd\	.
8a#/J	16cc#\	.
.	16ccc#X\JJ	.
8ccn/L	16ee\LL	.
.	16eee\	.
8b/J	16dd\	.
.	16ddd\JJ	.
8g/ 8b/L	16dd\LL	.
.	16ddd\	.
8a#/J	16cc#\	.
.	16ccc#\JJ	.
8cc/L	16ee\LL	.
.	16eee\	.
8b/J	16dd\	.
.	16ddd\JJ	.
*clefF4	*	*
=69	=69	=69
8r	4dd'/ 4ddd'/	.
4B\ 4b\	.	.
.	4ccn'/ 4ff#'/	.
4A\ 4a\	.	.
.	4b'/ 4bb'/	.
4G\ 4g\	.	.
.	4a'/ 4dd'/	.
[8F#\ [8f#\	.	.
=70	=70	=70
8F#\] 8f#\]	4g'/ 4gg'/	.
4E\ 4e\	.	.
.	4f#'/ 4b'/	.
4D\ 4d\	.	.
.	4e'/ 4ee'/	.
4C\ 4c\	.	.
.	4d'/ 4g'/	.
[8BB\ [8B\	.	.
=71	=71	=71
8BB\] 8B\]	4c'/ 4cc'/	.
4AA\ 4A\	.	.
.	4B'/ 4e'/	.
4GG\ 4G\	.	.
.	4A'/ 4a'/	.
4FF#\ 4F#\	.	.
.	4G'/ 4c#'/	.
[8EE\ [8E\	.	.
=72	=72	=72
8EE\] 8E\]	4F#'/ 4d'/	.
4DD\ 4D\	.	.
.	4D'/ 4F#'/ 4d'/	.
4CCn\ 4Cn\	.	.
.	4E'/ 4G'/ 4d'/	.
4BBB\ 4BB\	.	.
.	4F#'/ 4A'/ 4d'/	.
8AAA\ 8AA\	.	.
=73	=73	=73
4r	4G/ 4B/ 4d/	.
4GGG'/ 4GG'/	4r	ff
2r	(12G/L	.
.	12B/	.
.	12d/J)	.
.	16g\LL	.
.	16b\	.
.	16dd\	.
.	16gg\JJ	.
=74	=74	=74
4r	4g'/	.
4DD#'/ 4D#'/	4r	ff
2r	(12G/L	.
.	12B/	.
.	12d#/J)	.
.	16g\LL	.
.	16b\	.
.	16dd#X\	.
.	16gg\JJ	.
=75	=75	=75
4r	4g'/	.
4EE'/ 4E'/	4r	ff
2r	(12G/L	.
.	12B/	.
.	12e/J)	.
.	16g\LL	.
.	16b\	.
.	16ee\	.
.	16gg\JJ	.
=76	=76	=76
4CC'/ 4C'/	4c'/ 4cc'/	.
4r	4r	.
4DD'/ 4D'/	4d'/ 4dd'/	.
4r	4r	.
=77	=77	=77
4GGG'/ 4GG'/	4G'/ 4g'/	.
4r	4r	.
4C'/	4c'/	p
4C'/	4c'/	.
=78	=78	=78
Dq/	dq/	.
(8CT/L	(8cT/L	.
16BB/L	16B/L	.
16C/JJ)	16c/JJ)	.
4AA/	4A/	.
(2D\ 2A\	2c/ (2f#/	pp
=79	=79	=79
4GG\ 4G\)	4B/ 4g/)	.
4r	4r	.
4C'/	4c'/	p
4C'/	4c'/	.
=80	=80	=80
Dq/	dq/	.
8CT/L	(8cT/L	.
16BB/L	16B/L	.
16C/JJ	16c/JJ)	.
4AA/	4A/	.
(2D\ 2c\	2f#/ (2a/	pp
=81	=81	=81
4G\ 4B\)	4g/ 4b/)	.
4r	4r	.
4C'/	4c'/	f
4C'/	4c'/	.
=82	=82	=82
Dq/	dq/	.
(8CT/L	(8cT/L	.
16BB/L	16B/L	.
16C/JJ)	16c/JJ)	.
4AA/	4A/	.
Gq/	gq/	.
(8F#t\L	(8f#t/L	.
16E\L	16e/L	.
16F#\JJ)	16f#/JJ)	.
4D\	4d/	.
=83	=83	=83
cq/	ccq/	.
(8Bt\L	(8bt\L	.
16A\L	16a\L	.
16B\JJ)	16b\JJ)	.
4G\	4g/	.
f#q/	ff#q/	.
(8eT\L	(8eeT\L	.
16d#\L	16dd#\L	.
16e\JJ)	16ee\JJ)	.
4c#\	4cc#\	.
=84	=84	=84
*	*^	*
4dn'\	2ry	4ddn'\	.
4r	.	4r	.
4DD'/ 4FF#'/ 4AA'/ 4D'/	4dd/ 4ff#/	4a\ 4ccn\	.
4r	4ry	4r	.
*	*v	*v	*
=85	=85	=85
16GG\LL	16g\LL	ff
16G\	16gg\	.
16FF#\	16f#\	.
16F#X\JJ	16ff#X\JJ	.
16GG\LL	16g\LL	.
16G\	16gg\	.
16AA\	16a\	.
16A\JJ	16aa\JJ	.
16BB\LL	16b\LL	.
16B\	16bb\	.
16C\	16cc\	.
16c\JJ	16ccc\JJ	.
16C#\LL	16cc#\LL	.
16c#X\	16ccc#X\	.
16D\	16dd\	.
16d\JJ	16ddd\JJ	.
=86	=86	=86
16E\LL	16ee\LL	.
16e\	16eee\	.
16D\	16dd\	.
16d\JJ	16ddd\JJ	.
16Cn\LL	16ccn\LL	.
16cn\	16cccn\	.
16BB\	16b\	.
16B\JJ	16bb\JJ	.
16AA\LL	16a\LL	.
16A\	16aa\	.
16BB\	16b\	.
16B\JJ	16bb\JJ	.
16C\LL	16cc\LL	.
16c\	16ccc\	.
16AA\	16a\	.
16A\JJ	16aa\JJ	.
=87	=87	=87
16GG\LL	16g\LL	.
16G\	16gg\	.
16FF#\	16f#\	.
16F#X\JJ	16ff#X\JJ	.
16EE/LL	16e/LL	.
16E/	16ee/	.
16DD/	16d/	.
16D/JJ	16dd/JJ	.
16CC/LL	16c/LL	.
16C/	16cc/	.
16BBB/	16B/	.
16BB/JJ	16b/JJ	.
16AAA/LL	16A/LL	.
16AA/	16a/	.
16GGG/	16G/	.
16GG/JJ	16g/JJ	.
=88	=88	=88
*^	*	*
4r	8FF#\L	16F#\LL	.
.	.	16f#\	.
.	8EE\	16E\	.
.	.	16e\JJ	.
4r	8DD\	16D\LL	.
.	.	16d\	.
.	8CC#\J	16C#\	.
.	.	16c#\JJ	.
4r	8DD\L	16D\LL	.
.	.	16d\	.
.	8CCn\	16Cn\	.
.	.	16cn\JJ	.
16BB/LL	8BBB\	4ry	.
16B/	.	.	.
16AA/	8AAA\J	.	.
16A/JJ	.	.	.
=89	=89	=89	=89
*	*	*^	*
4G/	4GGG\ 4GG\	4ry	4ry	.
4r	4ry	4ry	4r	.
4DD/ 4FF#/ 4AA/ 4D/	4ry	4dd/ 4ff#/	4f#\ 4a\ 4cc\	ff
4r	4ry	4ry	4r	.
*v	*v	*	*	*
*	*v	*v	*
=90	=90	=90
*>A1	*>A1	*>A1
4GGG/ 4BBB/ 4DD/ 4GG/	4g\ 4b\ 4dd\ 4gg\	.
4r	4r	.
2r	2r	.
=91:|!	=91:|!	=91:|!
*>A2	*>A2	*>A2
4GGG/ 4BBB/ 4DD/ 4GG/	4g\ 4b\ 4dd\ 4gg\	.
4r	4r	.
4D\	4d/	p
4D\	4d/	.
=92||	=92||	=92||
*>B	*>B	*>B
Eq/	eq/	.
(8DT/L	(8dT/L	.
16C#/L	16c#/L	.
16D/JJ)	16d/JJ)	.
4BB/	4B/	.
2Fn\ [2G\	2d/ (2b/	pp
=93	=93	=93
4E-\ 4G\]	4cn/ 4ccn/)	.
4r	4r	.
4G\	4g/	p
4G\	4g/	.
=94	=94	=94
A-q/	a-q/	.
(8Gt\L	(8gt/L	.
16F\L	16f/L	.
16G\JJ)	16g/JJ)	.
4En\	4en/	.
2B-\ [2c\	2g\ (2ee\	pp
=95	=95	=95
4A-\ 4c\]	4f\ 4ff\)	.
4r	4r	.
4A-\	4a-/	f
4A-\	4a-/	.
=96	=96	=96
B-q/	b-q/	.
(8A-T\L	(8a-T/L	.
16G\L	16g/L	.
16A-\JJ)	16a-/JJ)	.
4F\	4f/	.
e-q/	ee-q/	.
(8dt\L	(8ddt\L	.
16c\L	16cc\L	.
16d\JJ)	16dd\JJ)	.
4B-\	4b-\	.
*clefG2	*	*
=97	=97	=97
gq/	ggq/	.
(8fT/L	(8ffT\L	.
16en/L	16een\L	.
16f/JJ)	16ff\JJ)	.
4d/	4dd\	.
b-q/	bb-q/	.
(8a-T/L	(8aa-T\L	.
16g/L	16gg\L	.
16a-/JJ)	16aa-\JJ)	.
4f/	4ff\	.
*clefF4	*	*
=98	=98	=98
[1BBB- [1DD [1FF [1BB-	16ff\LL	ff
.	16ddd\	.
.	16aa-\	.
.	16fff\JJ	.
.	16dd\LL	.
.	16aa-\	.
.	16ff\	.
.	16ddd\JJ	.
.	16a-X\LL	.
.	16ff\	.
.	16dd\	.
.	16aa-\JJ	.
.	16f\LL	.
.	16dd\	.
.	16a-\	.
.	16ff\JJ	.
=99	=99	=99
1BBB-] 1DD] 1FF] 1BB-]	16d/LL	.
.	16a-/	.
.	16f/	.
.	16dd/JJ	.
.	16A-/LL	.
.	16f/	.
.	16d/	.
.	16a-/JJ	.
.	16F/LL	.
.	16d/	.
.	16A-/	.
.	16f/JJ	.
.	16A-/LL	.
.	16f/	.
.	16d/	.
.	16a-/JJ	.
=100	=100	=100
[1BBBn [1DD [1FF [1BBn	16F/LL	f
.	16d/	.
.	16A-/	.
.	16f/JJ	.
.	16A-/LL	.
.	16f/	.
.	16d/	.
.	16a-X/JJ	.
.	16d/LL	.
.	16a-/	.
.	16f/	.
.	16dd/JJ	.
.	16f/LL	.
.	16dd/	.
.	16a-/	.
.	16ff/JJ	.
=101	=101	=101
1BBB] 1DD] 1FF] 1BB]	16a-\LL	.
.	16ff\	.
.	16dd\	.
.	16aa-X\JJ	.
.	16dd\LL	.
.	16aa-\	.
.	16ff\	.
.	16ddd\JJ	.
.	16ff\LL	.
.	16ddd\	.
.	16aa-\	.
.	16fff\JJ	.
.	16dd\LL	.
.	16aa-\	.
.	16ff\	.
.	16ddd\JJ	.
=102	=102	=102
[1CC [1FF [1AA- [1C	16ff\LL	ff
.	16ccc\	.
.	16aa-\	.
.	16fff\JJ	.
.	16cc\LL	.
.	16aa-\	.
.	16ff\	.
.	16ccc\JJ	.
.	16a-X\LL	.
.	16ff\	.
.	16cc\	.
.	16aa-\JJ	.
.	16f\LL	.
.	16cc\	.
.	16a-\	.
.	16ff\JJ	.
=103	=103	=103
1CC] 1FF] 1AA-] 1C]	16c/LL	.
.	16a-/	.
.	16f/	.
.	16cc/JJ	.
.	16A-X/LL	.
.	16f/	.
.	16c/	.
.	16a-/JJ	.
.	16F/LL	.
.	16c/	.
.	16A-/	.
.	16f/JJ	.
.	16A-/LL	.
.	16f/	.
.	16c/	.
.	16a-/JJ	.
=104	=104	=104
[1CC# [1EE# [1GG# [1C#	16E#/LL	.
.	16B/	.
.	16G#/	.
.	16e#X/JJ	.
.	16G#/LL	.
.	16e#/	.
.	16B/	.
.	16g#X/JJ	.
.	16B/LL	.
.	16g#/	.
.	16e#/	.
.	16b/JJ	.
.	16e#/LL	.
.	16b/	.
.	16g#/	.
.	16ee#X/JJ	.
=105	=105	=105
1CC#] 1EE#] 1GG#] 1C#]	16g#\LL	.
.	16ee#\	.
.	16b\	.
.	16gg#X\JJ	.
.	16b\LL	.
.	16gg#\	.
.	16ee#\	.
.	16bb\JJ	.
.	16g#\LL	.
.	16ee#\	.
.	16b\	.
.	16gg#\JJ	.
.	16b\LL	.
.	16gg#\	.
.	16ee#\	.
.	16bb\JJ	.
=106	=106	=106
[1CC# [1FF# [1AA [1C#	16a\LL	f
.	16ff#\	.
.	16cc#\	.
.	16aa\JJ	.
.	16f#X\LL	.
.	16cc#\	.
.	16a\	.
.	16ff#\JJ	.
.	16c#X/LL	.
.	16a/	.
.	16f#/	.
.	16cc#/JJ	.
.	16A/LL	.
.	16f#/	.
.	16c#/	.
.	16a/JJ	.
=107	=107	=107
1CC#] 1FF#] 1AA] 1C#]	16F#/LL	.
.	16c#/	.
.	16A/	.
.	16f#X/JJ	.
.	16A/LL	.
.	16f#/	.
.	16c#/	.
.	16a/JJ	.
.	16F#/LL	.
.	16c#/	.
.	16A/	.
.	16f#/JJ	.
.	16A/LL	.
.	16f#/	.
.	16c#/	.
.	16a/JJ	.
=108	=108	=108
[1CC# [1EE [1AA [1C#	16G/LL	.
.	16A/	.
.	16e/	.
.	16g/JJ	.
.	16F#/LL	.
.	16A/	.
.	16d#/	.
.	16f#X/JJ	.
.	16G/LL	.
.	16B/	.
.	16e/	.
.	16g/JJ	.
.	16F#/LL	.
.	16A/	.
.	16d#/	.
.	16f#/JJ	.
=109	=109	=109
1CC#] 1EE] 1AA] 1C#]	16G/LL	.
.	16A/	.
.	16e/	pp
.	16g/JJ	.
.	16F#/LL	.
.	16A/	.
.	16d#/	.
.	16f#X/JJ	.
.	16G/LL	.
.	16A/	.
.	16e/	.
.	16g/JJ	.
.	16G/LL	.
.	16A/	.
.	16e/	.
.	16g/JJ	.
=110	=110	=110
1D 1A	2d/ 2f#/	pp
.	(16c#/ 16e/LL	.
.	16d/ 16f#/	.
.	16c#/ 16e/	.
.	16d/) 16f#/JJ	.
.	8e'/ 8g'/L	.
.	8d'/ 8f#'/J	.
=111	=111	=111
4AA'\ 4A'\	4c#'/ 4e'/	.
4AA'\ 4A'\	4c#'/ 4a'/	.
2r	2r	.
=112	=112	=112
1AA 1E 1A	2c#/ 2g/	.
.	(16f#/LL	.
.	16g/	.
.	16f#/	.
.	16g/JJ)	.
.	8a'/L	.
.	8g'/J	.
=113	=113	=113
4D'\ 4A'\	4d'/ 4f#'/	.
4D'\ 4A'\	4f#'/ 4dd'/	.
2r	2r	.
=114	=114	=114
4D\ 4F#\ 4A\ 4d\	2f#/ 2dd/	ff
4DD/ 4D/	.	.
2r	(16ccn\LL	.
.	16dd\	.
.	16cc\	.
.	16dd\JJ)	.
.	8ee-'\L	.
.	8cc'\J	.
=115	=115	=115
1r	(16a/LL	.
.	16b-/	.
.	16a/	.
.	16b-/JJ)	.
.	8cc'/L	.
.	8a'/J	.
.	(16f#/LL	.
.	16g/	.
.	16f#/	.
.	16g/JJ)	.
.	8a'/L	.
.	8f#'/J	.
=116	=116	=116
4DD/ 4D/	4d/	.
2D\ 2d\	4r	.
.	4e-\ 4ee-\	.
4C\ 4c\	[4ee-\ [4eee-X\	.
=117	=117	=117
4BB-\ 4B-\	4ee-\] 4eee-\]	.
2B-\ 2b-X\	4dd/ 4ddd/	.
.	4cc'/	.
4A\ 4a\	4cc'/ 4ccc'/	ff
=118	=118	=118
4G\ 4g\	4bn/ 4dd/ 4gg/ 4bbn/	.
4GG\ 4G\	4r	.
2r	(16ff\LL	.
.	16gg\	.
.	16ff\	.
.	16gg\JJ)	.
.	8aa-'\L	.
.	8ff'\J	.
=119	=119	=119
1r	(16dd\LL	.
.	16ee-\	.
.	16dd\	.
.	16ee-\JJ)	.
.	8ff'\L	.
.	8dd'\J	.
.	(16b\LL	.
.	16cc\	.
.	16b\	.
.	16cc\JJ)	.
.	8dd'\L	.
.	8b'\J	.
=120	=120	=120
4GGG/ 4GG/	4g/	.
2GG/ 2G/	4r	.
.	4A-/ 4a-/	.
4FF/ 4F/	[4a-\ [4aa-X\	.
=121	=121	=121
4EE-/ 4E-/	4a-\] 4aa-\]	.
2E-\ 2e-X\	4g'\ 4gg'\	.
.	4f'\ 4ff'\	.
4D\ 4d\	4ff'\ 4fff'\	.
=122	=122	=122
4C\ 4c\	4een\ 4gg\ 4ccc\ 4eeen\	ff
4c\ 4cc\	4r	.
2r	(16bb-\LL	.
.	16ccc\	.
.	16bb-\	.
.	16ccc\JJ)	.
.	8ddd-'\L	.
.	8bb-'\J	.
=123	=123	=123
1r	(16gg\LL	.
.	16aa-\	.
.	16gg\	.
.	16aa-\JJ)	.
.	8bb-'\L	.
.	8gg'\J	.
.	(16ee\LL	.
.	16ff\	.
.	16ee\	.
.	16ff\JJ)	.
.	8gg'\L	.
.	8ee'\J	.
=124	=124	=124
4CC/ 4C/	4cc\	.
2C\ 2c\	4r	.
.	4d-\ 4dd-\	.
4BB-\ 4B-\	[4dd-\ [4ddd-\	.
=125	=125	=125
4AA-\ 4A-\	4dd-/] 4ddd-/]	.
2A-\ 2a-X\	4cc/ 4ccc/	.
.	4b-'/	.
4G\ 4g\	[4b-/ [4bb-/	.
=126	=126	=126
4FF\ 4F\	4b-/] 4bb-/]	.
2F\ 2f\	4a-/ 4aa-/	.
.	4g'/	.
4E-\ 4e-\	[4g/ [4gg/	.
=127	=127	=127
4DD/ 4D/	4g/] 4gg/]	.
2D\ 2d\	4f/ 4ff/	.
.	4e-'/	.
4C\ 4c\	4e-/ 4ee-X/	.
=128	=128	=128
4r	4d'/	.
4FF/ 4C/ 4F/	4d/ 4cc/ 4dd/	.
4r	4en'/	.
4GG/ 4C/ 4G/	4e/ 4cc/ 4ee/	.
=129	=129	=129
4r	4f'/	.
4AA-/ 4C/ 4A-/	4f/ 4cc/ 4ff/	.
4r	4e-'/	.
4FF#/ 4C/ 4F#/	4e-/ 4cc/ 4ee-X/	.
=130	=130	=130
*^	*	*
2G/	[1GG	4d/ 4b/ 4dd/	.
.	.	4r	.
(16F#/LL	.	4r	.
16G/	.	.	.
16F#/	.	.	.
16G/JJ)	.	.	.
8A'\L	.	4r	.
8F#'\J	.	.	.
=131	=131	=131	=131
*	*	*^	*
(4E-/	1GG]	2f#/	1c	p
2.D/)	.	.	.	.
.	.	(16f#/LL	.	.
.	.	16g/	.	.
.	.	16f#/	.	.
.	.	16g/JJ)	.	.
.	.	8a'/L	.	.
.	.	8f#'/J	.	.
*	*	*v	*v	*
=132	=132	=132	=132
2G/	[1GG	(4B/ 4g/	.
.	.	4d/) 4b/	.
(16F#/LL	.	4r	.
16G/	.	.	.
16F#/	.	.	.
16G/JJ)	.	.	.
8A'/L	.	4r	.
8F#'/J	.	.	.
=133	=133	=133	=133
*	*	*^	*
(4E-/	1GG]	2f#/ 2a/	1c	.
2.D/)	.	.	.	.
.	.	(16a/LL	.	.
.	.	16b/	.	.
.	.	16a/	.	.
.	.	16b/JJ)	.	.
.	.	8cc'/L	.	.
.	.	8a'/J	.	.
=134	=134	=134	=134	=134
2G/	[1GG	4g/ (4b/	2d\	.
.	.	4b/ 4dd/)	.	.
(16F#/LL	.	4r	2ry	.
16G/	.	.	.	.
16F#/	.	.	.	.
16G/JJ)	.	.	.	.
8A'/L	.	4r	.	.
8F#'/J	.	.	.	.
=135	=135	=135	=135	=135
(4E-/	1GG]	2ff#/	1cc	.
2.D/)	.	.	.	.
.	.	(16ff#/LL	.	.
.	.	16gg/	.	.
.	.	16ff#/	.	.
.	.	16gg/JJ)	.	.
.	.	8aa'/L	.	.
.	.	8ff#'/J	.	.
*v	*v	*	*	*
*	*v	*v	*
=136	=136	=136
.	(ffnq/	.
[1GG [1D [1Fn [1B	2fffn\)	ff
.	(16ddd\LL	.
.	16eee\	.
.	16ddd\	.
.	16eee\JJ	.
.	8fff'\L)	.
.	8ddd'\J	.
=137	=137	=137
1GG_ 1D_ 1F_ 1B_	(16bb\LL	.
.	16ccc\	.
.	16bb\	.
.	16ccc\JJ)	.
.	8ddd'\L	.
.	8bb'\J	.
.	(16ff\LL	.
.	16gg\	.
.	16ff\	.
.	16gg\JJ)	.
.	8aa'\L	.
.	8ff'\J	.
=138	=138	=138
1GG_ 1D_ 1F_ 1B_	(16dd\LL	.
.	16ee\	.
.	16dd\	.
.	16ee\JJ)	.
.	8ff'\L	.
.	8dd'\J	.
.	(16b\LL	.
.	16cc\	.
.	16b\	.
.	16cc\JJ)	.
.	8dd'\L	.
.	8b'\J	.
=139	=139	=139
1GG] 1D] 1F] 1B]	(16f/LL	.
.	16g/	.
.	16f/	.
.	16g/JJ)	.
.	8a'/L	.
.	8f'/J	.
.	(16d/LL	.
.	16e/	.
.	16d/	.
.	16e/JJ)	.
.	8f'/L	.
.	8d'/J	.
=140	=140	=140
1C 1G	2c/ 2e/	p
.	(16B/ 16d/LL	.
.	16c/ 16e/	.
.	16B/ 16d/	.
.	16c/) 16e/JJ	.
.	8d'/ 8f'/L	.
.	8c'/ 8e'/J	.
=141	=141	=141
4GG'/ 4G'/	4B'/ 4d'/	.
4GG'/ 4G'/	4B'/ 4g'/	.
2r	2r	.
=142	=142	=142
1GG 1B	2d/ 2f/	.
.	(16c#/ 16e/LL	.
.	16d/ 16f/	.
.	16c#/ 16e/	.
.	16d/) 16f/JJ	.
.	8e'/ 8g'/L	.
.	8d'/ 8f'/J	.
=143	=143	=143
4C'\ 4G'\	4cn'/ 4e'/	.
4C'\ 4G'\	4e'/ 4cc'/	.
2r	2r	.
=144	=144	=144
*^	*^	*
[1G	4r	2cc/	2e\	.
.	(4C\	.	.	.
.	4D\	(16b/LL	4f\	.
.	.	16cc/	.	.
.	.	16b/	.	.
.	.	16cc/JJ)	.	.
.	4F\	8dd'/L	4d\	.
.	.	8b'/J	.	.
=145	=145	=145	=145	=145
4G/]	4E\)	(4g/	4g\	.
2G/	(4C\	4cc/)	4e\	.
.	4D\	(16b/LL	4f\	.
.	.	16cc/	.	.
.	.	16b/	.	.
.	.	16cc/JJ)	.	.
4G/)	4F\	8dd'/L	4d\	.
.	.	8b'/J	.	.
=146	=146	=146	=146	=146
2G/	(4E\	(4g/	2ry	.
.	4C\	4cc/	.	.
2A/	4F\	4d/	2c\ 2d\	.
.	4D\)	4a/)	.	.
*v	*v	*	*	*
=147	=147	=147	=147
(4G\	(4d/	2B\	.
4GG/	4g/	.	.
4C/)	4e/)	4c\	.
4r	4r	4ry	.
*	*v	*v	*
=148	=148	=148
4GG'\ 4G'\	8r	.
.	4e\ 4ee\	p
4C'\ 4c'\	.	.
.	4e\ 4ee\	.
4DD'/ 4D'/	.	.
.	4f\ 4ff\	.
4AA'\ 4A'\	.	.
.	[8f#\ [8ff#\	.
=149	=149	=149
4BBB'/ 4BB'/	8f#\] 8ff#\]	.
.	4g\ 4gg\	.
4GG'\ 4G'\	.	.
.	8fn\ 8ffn\	.
4CC'/ 4C'/	8f\ (8ff\L	.
.	8e\ 8ee\)	.
4r	8d'\ 8dd'\	.
.	8c'\ 8cc'\J	.
=150	=150	=150
4C'\ 4c'\	8r	.
.	4a\ 4aa\	.
4F'\ 4f'\	.	.
.	4a\ 4aa\	.
4GG'\ 4G'\	.	.
.	4b-\ 4bb-\	.
4D'\ 4d'\	.	.
.	[8bn\ [8bbn\	.
=151	=151	=151
4EE'/ 4E'/	8b\] 8bb\]	.
.	4cc\ 4ccc\	.
4C'\ 4c'\	.	.
.	8b-\ 8bb-\	.
4FF'/ 4F'/	8b-\ (8bb-\L	.
.	8a\ 8aa\)	.
4r	8g'\ 8gg'\	.
.	8f'\ 8ff'\J	.
=152	=152	=152
8r	4a'\ 4aa'\	f
4FF\ 4F\	.	.
.	4dd'\ 4ddd'\	.
4FF#\ 4F#\	.	.
.	4d'\ 4dd'\	.
4GG\ 4G\	.	.
.	4bn'\ 4bbn'\	.
[8GG#\ [8G#\	.	.
=153	=153	=153
8GG#\] 8G#\]	4c#'/ 4cc#'/	.
4AA\ 4A\	.	.
.	4a'\ 4aa'\	.
(8GGn\ 8Gn\	.	.
8GG/ 8G/L	4cn'/ 4ccn'/	.
8FF#/) 8F#/	.	.
8EE'/ 8E'/	4a'\ 4aa'\	.
8DD'/ 8D'/J	.	.
=154	=154	=154
8r	4B'/ 4b'/	.
4GG/ 4G/	.	.
.	4g'\ 4gg'\	.
8FFn/ 8Fn/	.	.
(8FF/ 8F/L	4B-'/ 4b-'/	.
8EE/) 8E/	.	.
8DD'/ 8D'/	4g'\ 4gg'\	.
8CC'/ 8C'/J	.	.
=155	=155	=155
8r	4A'/ 4a'/	.
4FF/ 4F/	.	.
.	[4f/ [4ff/	.
8EE/ 8E/	.	.
8DD/ 8D/L	8f/] 8ff/L]	.
8EE/ 8E/	8e'/ 8ee'/	.
8FF/ 8F/	8d'/ 8dd'/	.
8FF#/ 8F#/J	8c'/ 8cc'/J	.
=156	=156	=156
16GG\LL	4B/ 4b/	.
16G\	.	.
16F#\	.	.
16G\JJ	.	.
16A\LL	4r	.
16G\	.	.
16F#\	.	.
16G\JJ	.	.
16Fn\LL	4r	.
16G\	.	.
16D\	.	.
16G\JJ	.	.
16F\LL	(8.bbt\L	.
16G\	.	.
16D\	.	.
16G\JJ	32aa\LL	.
.	32bb\JJJ	.
=157	=157	=157
16E\LL	4.ccc\)	.
16G\	.	.
16C\	.	.
16G\JJ	.	.
16E\LL	.	.
16G\	.	.
16C\	(32ccc\LLL	.
.	32bb\	.
16G\JJ	32aa\	.
.	32gg\JJJ	.
16BB\LL	8ff'\L)	.
16G\	.	.
16F#\	8dd\ (8ff\	.
16G\JJ	.	.
16C\LL	8cc\ 8ee\)	.
16G\	.	.
16F#\	8cc\ (8ee\J	.
16G\JJ	.	.
=158	=158	=158
16GG\LL	4b\ 4dd\)	.
16G\	.	.
16F#\	.	.
16G\JJ	.	.
16A\LL	4r	.
16G\	.	.
16F#\	.	.
16G\JJ	.	.
16Fn\LL	4r	.
16G\	.	.
16D\	.	.
16G\JJ	.	.
16F\LL	(8.bb\ 8.dddT\L	.
16G\	.	.
16D\	.	.
16G\JJ	32ccc\LL	.
.	32ddd\JJJ	.
=159	=159	=159
16C\LL	4.ccc\ 4.eee\)	.
16G\	.	.
16E\	.	.
16G\JJ	.	.
16C\LL	.	.
16G\	.	.
16E\	(48eee\LLL	.
.	48ddd\	.
.	48ccc\	.
16G\JJ	48bb\	.
.	48aa\	.
.	48gg\JJJ)	.
16BB\LL	8ff'\L	.
16G\	.	.
16F#\	8dd\ (8ff\	.
16G\JJ	.	.
16C\LL	8cc\ 8ee\)	.
16G\	.	.
16F#\	8cc\ (8ee\J	.
16G\JJ	.	.
=160	=160	=160
4GG/	16b\ 16dd\LL)	ff
.	16gg\	.
.	16ff#\	.
.	16ee\JJ	.
4r	16dd\LL	.
.	16cc\	.
.	16b\	.
.	16a\JJ	.
16r	16g/LL	.
16G\LL	16g/	.
16F#\	16f#/	.
16E\JJ	16e/JJ	.
16D/LL	16d/LL	.
16C/	16c/	.
16BB/	16B/	.
16AA/JJ	16A/JJ	.
=161	=161	=161
4GG/	4G/	.
4r	4r	.
2r	2r	.
*clefG2	*	*
=162	=162	=162
(8c/L	4ggS\	p
8e-/	.	.
8g/	(8aa\L	.
8e-/J	8bb\J	.
8g/L	8ccc\L	.
8e-/	8ddd\	.
8c/	8eee-\	.
8e-/J)	8gg\J)	.
=163	=163	=163
.	(aaq/	.
(8c/L	(8gg\L)	.
8d/	8ff#\)	.
8a/	8ff#'\	.
8d/J	8ff#'\J	.
8a/L	2ff#\	.
8d/	.	.
8c/	.	.
8d/J)	.	.
=164	=164	=164
(8B/L	(8ffn\L	.
8d/	8bb\	.
8g/	8ddd\	.
8d/J	8bb\J	.
8g/L	8fff\L	.
8d/	8ddd\	.
8B/	8bb\	.
8d/J)	8ff\J)	.
=165	=165	=165
(8B-/L	(8ee\L	.
8c/	8ddd-\	.
8g/	8ccc\	.
8c/J	8bb-\J	.
8g/L	8aa-\L	.
8c/	8gg\	.
8B-/	8ff\	.
8c/J)	8ee\J)	.
*clefF4	*	*
=166	=166	=166
(8A-\L	(4gg\	.
8c\	.	.
8f\	2ff^\	.
8c\J	.	.
8G\L	.	.
8c\	.	.
8e-\	[4ee-^\	.
8c\J)	.	.
=167	=167	=167
(8F#\L	4ee-\]	.
8A\	.	.
8d\	2dd^\	.
8A\J	.	.
8F#\L	.	.
8A\	.	.
8F#\	4ccc\	.
8D\J)	.	.
=168	=168	=168
(8G\L	8bb-\L)	.
8B-\	(8dd\	.
8d\	8een\	.
8B-\J	8ff#\J	.
8d\L	8gg\L	.
8B-\	8aa\	.
8G\	8bb-\	.
8B-\J)	8dd\J)	.
=169	=169	=169
.	(eeq/	.
(8G\L	(8dd\L)	.
8A\	8cc#\)	.
8e\	8cc#'\	.
8A\J	8cc#'\J	.
8e\L	2cc#\	.
8A\	.	.
8G\	.	.
8A\J)	.	.
=170	=170	=170
(8F#\L	(8ccn\L	.
8A\	8ff#\	.
8d\	8aa\	.
8A\J	8ff#\J	.
8d\L	8ccc\L	.
8A\	8aa\	.
8F#\	8ff#\	.
8A\J)	8cc\J)	.
=171	=171	=171
(8Fn\L	(8b\L	.
8G\	8aa-\	.
8d\	8gg\	.
8G\J	8ffn\J	.
8d\L	8ee-\L	.
8G\	8dd\	.
8F\	8cc\	.
8G\J)	8b\J)	.
=172	=172	=172
(8E-\L	4dd\	.
8G\	.	.
8c\	2cc^\	.
8G\J	.	.
8D\L	.	.
8G\	.	.
8B-\	[4b-\	.
8G\J)	.	.
=173	=173	=173
(8C#\L	4b-\]	.
8En\	.	.
8A\	2a^/	.
8E\J	.	.
8C#\L	.	.
8E\	.	.
8A\	4gg\	.
8c#X\J)	.	.
*clefG2	*	*
=174	=174	=174
8d/L	4ff'\	f
8f/ 8a/	.	.
8f/ 8a/	(16ddd\LL	.
.	16ccc\	.
8f/ 8a/J	16bb-\	.
.	16aa\JJ	.
8f/ 8a/L	16gg\LL	.
.	16ff\	.
8f/ 8a/	16ee\	.
.	16dd\JJ	.
8g/ 8a/	16cc#\LL	.
.	16dd\	.
8g/ 8a/J	16ee\	.
.	16cc#\JJ)	.
=175	=175	=175
8d/L	4dd'\	.
8f/ 8a/	.	.
8f/ 8a/	4r	.
8f/ 8a/J	.	.
8G/L	4bn'\ 4dd'\ 4ff'\ 4gg'\ 4bbn'\	.
8f/ 8g/	.	.
8f/ 8g/	4r	.
8f/ 8g/J	.	.
=176	=176	=176
8c/L	4cc'\ 4ee-'\ 4gg'\ 4ccc'\	f
8e-/ 8g/	.	.
8e-/ 8g/	(16ccc\LL	.
.	16bb\	.
8e-/ 8g/J	16aa-\	.
.	16gg\JJ	.
8e-/ 8g/L	16ff\LL	.
.	16ee-\	.
8e-/ 8g/	16dd\	.
.	16cc\JJ	.
8f/ 8g/	16bn\LL	.
.	16cc\	.
8f/ 8g/J	16dd\	.
.	16b\JJ)	.
=177	=177	=177
8c/L	4cc'\	.
8e-/ 8g/	.	.
8e-/ 8g/	4r	.
8e-/ 8g/J	.	.
*clefF4	*	*
8AA-\L	4f#'\ 4cc'\ 4ff#'\	.
8A-X\ 8c\	.	.
8A-\ 8c\	4r	.
8A-\ 8c\J	.	.
=178	=178	=178
8GG\L	4g'\ 4b'\ 4dd'\ 4gg'\	f
8B\ 8d\	.	.
8B\ 8d\	(16gg\LL	.
.	16ff#\	.
8B\ 8d\J	16een\	.
.	16dd\JJ	.
8B\ 8d\L	16cc\LL	.
.	16b\	.
8B\ 8d\	16a\	.
.	16g\JJ	.
8G\	16f#X/LL	.
.	16g/	.
8c\ 8d\J	16a/	.
.	16f#/JJ)	.
=179	=179	=179
8G\L	4g'/	.
8B\ 8d\	.	.
8B\ 8d\	(16gg\LL	.
.	16ff#\	.
8B\ 8d\J	16ee\	.
.	16dd\JJ	.
8B\ 8d\L	16cc\LL	.
.	16b\	.
8B\ 8d\	16a\	.
.	16g\JJ	.
8G\	16f#X/LL	.
.	16g/	.
8c\ 8d\J	16a/	.
.	16f#/JJ)	.
=180	=180	=180
4G\ 4B\ 4d\	(8gS/L	p
.	8f#/	.
4r	8g/	.
.	8a/J	.
2r	8bS/L	.
.	8a#/	.
.	8b/	.
.	8cc/J)	.
=181	=181	=181
1r	(8ddS\L	.
.	8cc#\	.
.	8dd\	.
.	8ee\J	.
.	8gg\L	.
.	8ffn\	.
.	8ee\	.
.	8dd\J)	.
=182	=182	=182
1C 1E 1G 1c	(8ccn/L	.
.	8g/	.
.	8f#/	.
.	8g/J	.
.	8cc/L	.
.	8g/	.
.	8ee/	.
.	8g/J)	.
=183	=183	=183
*^	*	*
8r	1E	(2gg\	.
(8G/L	.	.	.
8F#/	.	.	.
8G/J	.	.	.
8c/L	.	4ee\	.
8G/	.	.	.
8e/	.	4cc\)	.
8G/J)	.	.	.
=184	=184	=184	=184
(2f/	1F	(8b/L	.
.	.	8g/	.
.	.	8f#/	.
.	.	8g/J	.
4d/	.	8b/L	.
.	.	8g/	.
4B/)	.	8dd/	.
.	.	8g/J)	.
=185	=185	=185	=185
8r	1D	(2ffn\	.
(8G/L	.	.	.
8F#/	.	.	.
8G/J	.	.	.
8B/L	.	4dd\	.
8G/	.	.	.
8d/	.	4b\)	.
8G/J)	.	.	.
=186	=186	=186	=186
(2e/	1E	(8cc/L	.
.	.	8g/	.
.	.	8f#/	.
.	.	8g/J	.
4c/	.	8cc/L	.
.	.	8g/	.
4G/)	.	8ee/	.
.	.	8cc/J	.
*v	*v	*	*
=187	=187	=187
1C 1E 1G 1A	8gg\L	.
.	8ee\	.
.	8ccc\	.
.	8gg\J	.
.	8eee\L	.
.	8ddd\	.
.	8ccc\	.
.	8bb\J	.
=188	=188	=188
1D 1F# 1A 1c	8aa\L	.
.	8gg\	.
.	8ff#\	.
.	8ee\J	.
.	8dd\L	.
.	8cc\	.
.	8b\	.
.	8a\J	.
=189	=189	=189
4G\ 4B\	8g/L	.
.	8f#/	.
4r	8g/	.
.	8a/J	.
2r	8g/L	.
.	8fn/	.
.	8e/	.
.	8d/J	.
=190	=190	=190
(8C\L	4c/)	.
8G\	.	.
8F#\	4r	.
8G\J	.	.
8c\L	2r	.
8G\	.	.
8e\	.	.
8G\J)	.	.
=191	=191	=191
*^	*	*
(2g/	1E	8r	.
.	.	(8ggW\L	.
.	.	8ff#\	.
.	.	8gg\J	.
4e/	.	8ccc\L	.
.	.	8gg\	.
4c/)	.	8eee\	.
.	.	8gg\J)	.
=192	=192	=192	=192
(8B/L	1D	(2fff\	.
8G/	.	.	.
8F#/	.	.	.
8G/J	.	.	.
8B/L	.	4ddd\	.
8G/	.	.	.
8d/	.	4bb\)	.
8G/J)	.	.	.
=193	=193	=193	=193
(2f/	1F	8r	.
.	.	(8ggW\L	.
.	.	8ff#\	.
.	.	8gg\J	.
4d/	.	8bb\L	.
.	.	8gg\	.
4B/)	.	8ddd\	.
.	.	8gg\J)	.
*v	*v	*	*
=194	=194	=194
4E\ 4c\	8eee\L	.
.	(8ccW\	.
4r	8b\	.
.	8cc\J	.
2r	8ee\L	.
.	8cc\	.
.	8gg\	.
.	8cc\J)	.
=195	=195	=195
1EE 1GG 1C 1E	(8bb-\L	.
.	8gg\	.
.	8ee\	.
.	8cc\J	.
.	8b-X/L	.
.	8g/	.
.	8e/	.
.	8B-X/J)	.
=196	=196	=196
4FF/ 4AA/ 4C/ 4F/	16A/LL	f
.	16c/	.
.	16f/	.
.	16a/JJ	.
8F\ 8A\L	16c/LL	.
.	16cc/	.
8F\ 8A\J	16c/	.
.	16cc/JJ	.
4F\ 4A\	16c/LL	.
.	16f/	.
.	16a/	.
.	16cc/JJ	.
8A\ 8c\L	16f/LL	.
.	16ff/	.
8A\ 8c\J	16f/	.
.	16ff/JJ	.
=197	=197	=197
4A\ 4c\	16f\LL	.
.	16a\	.
.	16cc\	.
.	16ff\JJ	.
8c\ 8f\L	16a\LL	.
.	16aa\	.
8c\ 8f\J	16a\	.
.	16aa\JJ	.
4c\ 4f\	16a\LL	.
.	16aa\	.
.	16ff\	.
.	16cc\JJ	.
4r	16a/LL	.
.	16f/	.
.	16c/	.
.	16A/JJ	.
=198	=198	=198
4FF/ 4BBn/ 4D/ 4F/	16Bn/LL	f
.	16d/	.
.	16g/	.
.	16b/JJ	.
8F\ 8B\L	16d/LL	.
.	16dd/	.
8F\ 8B\J	16d/	.
.	16dd/JJ	.
4F\ 4B\	16d/LL	.
.	16g/	.
.	16b/	.
.	16dd/JJ	.
8B\ 8d\L	16g\LL	.
.	16gg\	.
8B\ 8d\J	16g\	.
.	16gg\JJ	.
=199	=199	=199
4B\ 4d\	16g\LL	.
.	16b\	.
.	16dd\	.
.	16gg\JJ	.
8d\ 8f\L	16b\LL	.
.	16bb\	.
8d\ 8f\J	16b\	.
.	16bb\JJ	.
4d\ 4f\	16b\LL	.
.	16bb\	.
.	16gg\	.
.	16dd\JJ	.
4r	16b/LL	.
.	16g/	.
.	16d/	.
.	16B/JJ	.
=200	=200	=200
4EE/ 4GG/ 4C/ 4E/	16c/LL	.
.	16e/	.
.	16g/	.
.	16cc/JJ	.
*clefG2	*	*
8G/ 8c/L	16e/LL	.
.	16ee/	.
8G/ 8c/J	16e/	.
.	16ee/JJ	.
4G/ 4c/	16e/LL	.
.	16g/	.
.	16cc/	.
.	16ee/JJ	.
8c/ 8e/L	16g\LL	.
.	16gg\	.
8c/ 8e/J	16g\	.
.	16gg\JJ	.
=201	=201	=201
4c/ 4e/	16g\LL	.
.	16cc\	.
.	16ee\	.
.	16gg\JJ	.
8e/ 8g/L	16cc\LL	.
.	16ccc\	.
8e/ 8g/J	16cc\	.
.	16ccc\JJ	.
4e/ 4g/	16cc\LL	.
.	16ee\	.
.	16gg\	.
.	16ccc\JJ	.
8g/ 8cc/L	16ee\LL	.
.	16eee\	.
8g/ 8cc/J	16ee\	.
.	16eee\JJ	.
=202	=202	=202
8g/ 8cc/L	16ee\LL	.
.	16eee\	.
8f#/ 8cc/	16dd#\	.
.	16ddd#X\JJ	.
8a/ 8cc/	16ffn\LL	.
.	16fffn\	.
8g/ 8cc/J	16ee\	.
.	16eee\JJ	.
8g/ 8cc/L	16ee\LL	.
.	16eee\	.
8f#/ 8cc/	16dd#\	.
.	16ddd#\JJ	.
8a/ 8cc/	16ff\LL	.
.	16fff\	.
8g/ 8cc/J	16ee\	.
.	16eee\JJ	.
=203	=203	=203
8g/ 8cc/L	16ee\LL	.
.	16eee\	.
8f#/ 8cc/	16dd#\	.
.	16ddd#X\JJ	.
8a/ 8cc/	16ffn\LL	.
.	16fffn\	.
8g/ 8cc/J	16ee\	.
.	16eee\JJ	.
8g/ 8cc/L	16ee\LL	.
.	16eee\	.
8f#/ 8cc/	16dd#\	.
.	16ddd#\JJ	.
8a/ 8cc/	16ff\LL	.
.	16fff\	.
8g/ 8cc/J	16ee\	.
.	16eee\JJ	.
*clefF4	*	*
=204	=204	=204
8r	4ee'\ 4eee'\	.
4c\ 4cc\	.	.
.	4dd/ 4gg/	.
4B\ 4b\	.	.
.	4cc'/ 4ccc'/	.
4A\ 4a\	.	.
.	4b/ 4ee/	.
[8G\ [8g\	.	.
=205	=205	=205
8G\] 8g\]	4a/ 4aa/	.
4F\ 4f\	.	.
.	4g'/ 4cc'/	.
4E\ 4e\	.	.
.	4f'/ 4ff'/	.
4D\ 4d\	.	.
.	4e'/ 4a'/	.
[8C\ [8c\	.	.
=206	=206	=206
8C\] 8c\]	4d'/ 4dd'/	.
4BB\ 4B\	.	.
.	4c'/ 4f#'/	.
4AA\ 4A\	.	.
.	4B'/ 4b'/	.
4GG\ 4G\	.	.
.	4A'/ 4d'/	.
[8FFn\ [8Fn\	.	.
=207	=207	=207
8FF\] 8F\]	4G'/ 4g'/	.
4EE\ 4E\	.	.
.	4F'/ 4G'/ 4B'/	.
4DD\ 4D\	.	.
.	4E'/ 4G'/ 4c'/	.
4CC\ 4C\	.	.
.	4D'/ 4G'/ 4d'/	.
8BBB\ 8BB\	.	.
=208	=208	=208
4r	4E/ 4G/ 4c/ 4e/	.
4CC'/ 4C'/	4r	ff
2r	(12c/L	.
.	12e/	.
.	12g/J)	.
.	16cc\LL	.
.	16ee\	.
.	16gg\	.
.	16ccc\JJ	.
=209	=209	=209
4r	4cc\	ff
4GGG#'/ 4GG#'/	4r	.
2r	(12c/L	.
.	12e/	.
.	12g#/J)	.
.	16cc\LL	.
.	16ee\	.
.	16gg#\	.
.	16ccc\JJ	.
=210	=210	=210
4r	4cc\	.
4AAA'/ 4AA'/	4r	ff
2r	(12c/L	.
.	12e/	.
.	12a/J)	.
.	16cc\LL	.
.	16ee\	.
.	16aa\	.
.	16ccc\JJ	.
=211	=211	=211
4FF'\ 4F'\	4f'\ 4ff'\	.
4r	4r	.
4GG'\ 4G'\	4g'\ 4gg'\	.
4r	4r	.
=212	=212	=212
4CC'/ 4C'/	4c'/ 4cc'/	.
4r	4r	.
4F'\	4f'/	p
4F'\	4f'/	.
=213	=213	=213
Gq/	gq/	.
(8FT\L	(8fT/L	.
16E\L	16e/L	.
16F\JJ)	16f/JJ)	.
4D\	4d/	.
(2G\ 2d\	2f/ (2b/	pp
=214	=214	=214
4C\ 4c\)	4e/ 4cc/)	.
4r	4r	.
4F'\	4f'/	f
4F'\	4f'/	.
=215	=215	=215
Gq/	gq/	.
(8FT\L	(8fT/L	.
16E\L	16e/L	.
16F\JJ)	16f/JJ)	.
4D\	4d/	.
(2G\ 2f\	2g/ 2b/ (2dd/	pp
=216	=216	=216
4c\ 4e\)	4g/ 4cc/ 4ee/)	.
4r	4r	.
4F'\	4f'/	ff
4F'\	4f'/	.
=217	=217	=217
Gq/	gq/	.
(8FT\L	(8fT/L	.
16E\L	16e/L	.
16F\JJ)	16f/JJ)	.
4D\	4d/	.
cq/	ccq/	.
(8Bt\L	(8bt/L	.
16A\L	16a/L	.
16B\JJ)	16b/JJ)	.
4G\	4g/	.
*clefG2	*	*
=218	=218	=218
gq/	ggq/	.
(8fT/L	(8ffT\L	.
16e/L	16ee\L	.
16f/JJ)	16ff\JJ)	.
4d/	4dd\	.
ccq/	cccq/	.
(8bt/L	(8bbt\L	.
16a/L	16aa\L	.
16b/JJ)	16bb\JJ)	.
4g/	4gg\	.
=219	=219	=219
*clefF4	*	*
[1AAA- [1CC [1EE- [1AA-	2cc\ 2ee-\ (2aa-\ [2ccc\	p
.	8ccc\L])	.
.	8ccc\	.
.	8eee-\	.
.	8ccc\J	.
=220	=220	=220
1AAA-_ 1CC_ 1EE-_ 1AA-_	8aa-\L	.
.	8ccc\	.
.	8ee-\	.
.	8aa-\J	.
.	8cc\L	.
.	8ee-\	.
.	8a-X\	.
.	8cc\J	.
=221	=221	=221
*^	*	*
2r	1AAA-_ 1CC_ 1EE-_ 1AA-_	8e-/L	.
.	.	8a-/	.
.	.	8c/	.
.	.	8e-/J	.
8A-X/L	.	2r	.
8c/	.	.	.
8E-X/	.	.	.
8A-/J	.	.	.
=222	=222	=222	=222
8C/L	4AAA-\] 4CC\] 4EE-\] 4AA-\]	1r	.
8E-/J	.	.	.
4r	8AA-X\L	.	.
.	8C\J	.	.
2r	8EE-X\L	.	.
.	8AA-X\	.	.
.	8CC\	.	.
.	8EE-\J	.	.
*	*	*clefF4	*clefF4
*v	*v	*	*
=223	=223	=223
8AAA-/L	2r	.
8CC/	.	.
8EE-/	.	.
[8AA-/J	.	.
2AA-/_	8C/L	.
.	8E-/	.
.	8A-/	.
.	8c/J	.
=224	=224	=224
4.AA-/]	8A-\L	.
.	8E-\J	.
.	[4C\	.
8AA/	.	.
8EE-/L	2C\]	.
8CC/J	.	.
8AAA-/L	.	.
8AA/J	.	.
=225	=225	=225
8BBB-/L	2r	.
8EEn/	.	.
8GG/	.	.
[8BB-/J	.	.
2BB-/_	8D-/L	.
.	8En/	.
.	8G/	.
.	8d-/J	.
=226	=226	=226
4.BB-/]	8G\L	.
.	8En\J	.
.	[4D-\	.
8BB-/	.	.
8GG/L	2D-\]	.
8EEn/J	.	.
8BBB-/L	.	.
8BB-/J	.	.
=227	=227	=227
8CC/L	2r	.
8FF#/	.	.
8AA/	.	.
[8C/J	.	.
2C/_	8E-/L	.
.	8F#/	.
.	8An/	.
.	8e-/J	.
=228	=228	=228
4.C/]	8A\L	.
.	8F#\J	.
.	[4E-\	.
8C/	.	.
8AA/L	2E-\]	.
8FF#/J	.	.
8CC/L	.	.
8C/J	.	.
=229	=229	=229
12DD/L	4r	.
(12AA-/	.	.
12BBn/J	.	.
[2D/	(12F\L	<
.	12A-\	.
.	12Bn\J	.
.	12f\L	.
.	12B\	.
.	12A-\J	.
12D/L]	4F\)	.
12BB/	.	.
12AA-/J)	.	.
=230	=230	=230
*^	*	*
(12EE/L	1EE	4r	.
12BB-/	.	.	.
12C#/J	.	.	.
[2E/	.	(12G\L	.
.	.	12B-\	.
.	.	12c#\J	.
.	.	12g\L	.
.	.	12c#\	.
.	.	12B-\J	.
12E/L]	.	4G\)	.
12C#/	.	.	.
12BB-/J)	.	.	.
*	*	*clefG2	*clefG2
=231	=231	=231	=231
12FF/L	(1FF	4r	.
12BBn/	.	.	.
12D/J	.	.	.
[2F/	.	12A-/L	.
.	.	12Bn/	.
.	.	12d/J	.
.	.	12a-\L	.
.	.	12d\	.
.	.	12B\J	.
12F/L]	.	4A-\	.
12D/	.	.	.
12BB/J)	.	.	.
=232	=232	=232	=232
(12FF#/L	1FF#	4r	.
12C/	.	.	.
12E-/J	.	.	.
[2F#/	.	12An/L	.
.	.	12c/	.
.	.	12e-/J	.
.	.	12a\L	.
.	.	12e-\	.
.	.	12c\J	.
12F#/L]	.	4A\	.
12E-/	.	.	.
12C/J)	.	.	.
*v	*v	*	*
=	=	=
2GG;/ 2C;/ 2En;/ 2G;	2c;/ 2en;/ 2g;/	.
16Gq/LL	.	.
16F#q/	.	.
16Aq/	.	.
16Gq/JJ	.	.
=-	=-	=-
.	16cq/LL	.
.	16Bq/	.
.	16dq/	.
.	16cq/JJ	.
.	16eq/LL	.
.	16d#q/	.
.	16fnq/	.
.	16eq/JJ	.
.	16gq/LL	.
.	16f#q/	.
.	16aq/	.
.	16gq/JJ	.
.	16ccq\LL	.
.	16bq\	.
.	16ddq\	.
.	16ccq\JJ	.
.	16eeq\LL	.
.	16dd#q\	.
.	16ffnq\	.
.	16eeq\JJ	.
.	16ggq\LL	.
.	16ff#q\	.
.	16aaq\	.
.	16ggq\JJ	.
.	16cccq\LL	.
.	16bbq\	.
.	16dddq\	.
.	16cccq\JJ	.
.	4eeeq;\	.
.	(16ddd#q\LL	.
.	16eeeq\	.
.	16ddd#q\	.
.	16eeeq\JJ)	.
.	8fffq'\L	.
.	8eeeq'\J	.
*clefG2	*	*
(16dd#Xq\LL	(16bbq\LL	.
16eeq\	16cccq\	.
16dd#q\	16bbq\	.
16eeq\JJ)	16cccq\JJ)	.
8ffq'\L	8dddnq'\L	.
8eeq'\J	8cccq'\J	.
(16bq\LL	(16gg#Xq\LL	.
16ccq\	16aaq\	.
16bq\	16gg#q\	.
16ccq\JJ)	16aaq\JJ)	.
8ddnq'\L	8bbq'\L	.
8ccq'\J	8aaq'\J	.
(16g#Xq/LL	(16eeq\LL	.
16aq/	16ffq\	.
16g#q/	16eeq\	.
16aq/JJ)	16ffq\JJ)	.
8bq'/L	8ggnq'\L	.
8aq'/J	8ffq'\J	.
(16eq/LL	(16cc#Xq\LL	.
16fq/	16ddq\	.
16eq/	16cc#q\	.
16fq/JJ)	16ddq\JJ)	.
8gnq'/L	8eeq'\L	.
8fq'/J	8ddq'\J	.
=-	=-	=-
(16eq/LL	(16ccq\LL	.
16fq/	16ddq\	.
16eq/	16ccq\	.
16fq/JJ)	16ddq\JJ)	.
8aq'/L	8ffq'\L	.
8fq'/J	8ddq'\J	.
(16eq/LL	(16cc#q\LL	.
16fq/	16ddq\	.
16eq/	16cc#q\	.
16fq/JJ)	16ddq\JJ)	.
=-	=-	=-
8gq'/L	8eeq'\L	.
8fq'/J	8ddq'\J	.
(16eq/LL	16cc#q\LL	.
16fq/	16ddq\	.
16eq/	16ccq\	.
16fq/JJ)	16dd#q\JJ	.
8aq'/L	8ffq'\L	.
8fq'/J	8ddq'\L	.
=-	=-	=-
(16eq/LL	(16ccq\LL	.
16fq/	16ddq\	.
16gq/	16eeq\	.
16fq/JJ	16ddq\JJ	.
16eq/LL	16ccq\LL	.
16fq/	16ddq\	.
16aq/	16ffq\	.
16fq/JJ	16ddq\JJ	.
16eq/LL	16ccq\LL	.
16fq/	16ddq\	.
16gq/	16eeq\	.
16fq/JJ	16ddq\JJ	.
16eq/LL	16ccq\LL	.
16fq/	16ddq\	.
16aq/	16ffq\	.
16fq/JJ)	16ddq\JJ)	.
(16eq/LL	(16ccq\LL	.
16fq/	16ddq\	.
16eq/	16ccq\	.
16fq/JJ	16ddq\JJ	.
16eq/LL	16ccq\LL	.
16fq/	16ddq\	.
16eq/	16ccq\	.
16fq/JJ	16ddq\JJ	.
16eq/LL	16ccq\LL	.
16fq/	16ddq\	.
16eq/	16ccq\	.
16fq/JJ	16ddq\JJ	.
16eq/LL	16ccq\LL	.
16fq/	16ddq\	.
16eq/	16ccq\	.
16fq/JJ)	16ddq\JJ)	.
*clefF4	*	*
1G; 1B; 1d; 1f;	2dd;\	.
.	2ry	.
.	16cc#q/LL	.
.	16ddq/JJ	.
.	4ffq;\	.
.	(32eeq\LLL	p
.	32ee-q\	.
.	32ddq\	.
.	32cc#q\	.
.	32ccnq\	.
.	32bq\	.
.	32b-q\	.
.	32aq\	.
.	32a-q\	.
.	32gq\	.
.	32f#q\	.
.	32fnq\JJJ)	.
=233	=233	=233
1C 1G	2c/ 2e/	p
.	(16B/ 16d/LL	.
.	16c/ 16e/	.
.	16B/ 16d/	.
.	16c/) 16e/JJ	.
.	8d'/ 8f'/L	.
.	8c'/ 8e'/J	.
=234	=234	=234
4GG'/ 4G'/	4B'/ 4d'/	.
4GG'/ 4G'/	4B'/ 4g'/	.
2r	2r	.
=235	=235	=235
1GG 1B	2d/ 2f/	.
.	(16c#/ 16e/LL	.
.	16d/ 16f/	.
.	16c#/ 16e/	.
.	16d/) 16f/JJ	.
.	8e'/ 8g'/L	.
.	8d'/ 8f'/J	.
=236	=236	=236
4C'\ 4G'\	4cn'/ 4e'/	.
4C'\ 4G'\	4e'/ 4cc'/	.
2r	2r	.
=237	=237	=237
*	*^	*
2r	(4g/	2ry	.
.	[4cc/)	.	.
4GG'\ 4G'\	4cc/]	2f\	.
[4D\ [4d\	4b/	.	.
=238	=238	=238	=238
4D\] (4d\]	(4g/	2e\	.
4C\ 4c\)	[4cc/)	.	.
4GG'\ 4G'\	4cc/]	2f\	.
[4D\ [4d\	4b/	.	.
=239	=239	=239	=239
4D\] (4d\]	4g/	2e\	.
4C\ 4c\)	[4ee/	.	.
4BB'\ 4B'\	4ee/]	2g\	.
[4F\ [4f\	4dd/	.	.
=240	=240	=240	=240
4F\] 4f\]	4cc/	2.g\	.
4E\ 4e\	[4gg/	.	.
4D'\ 4d'\	4gg/]	.	.
[4A\	4ff/	[4a\	.
=241	=241	=241	=241
4A\]	4ee'/	4a\]	.
2G\	4ee/ 4eee/	2g\	.
.	4a'/	.	.
[4F\	4dd'/ 4ddd'/	(4f\	.
=242	=242	=242	=242
4F\]	4g'/)	4f\	.
2E\	4cc'/ 4ccc'/	2e\	.
.	4f'/	.	.
4D\	4b'/ 4bb'/	4d\	.
*	*v	*v	*
=243	=243	=243
8C'\L	8a'/ 8aa'/L	ff
8c\ 8e\J	8ee/J	.
8BB'\L	8g'/ 8gg'/L	.
8B\ 8d\J	8dd/J	.
8AA'\L	8f'/ 8ff'/L	.
8A\ 8c\J	8cc/J	.
8GG'\L	8e'/ 8ee'/L	.
8G\ 8B\J	8b/J	.
=244	=244	=244
8FF'/L	8d'/ 8dd'/L	.
8F/ 8A/J	8a/J	.
8EE'/L	8c'/ 8cc'/L	.
8E/ 8G/J	8g/J	.
8DD'/L	8B'/ 8b'/L	.
8D/ 8F/J	8f/J	.
8CC'/L	8c'/ 8cc'/L	.
8C/ 8E/J	8e/J	.
=245	=245	=245
4FF/ 4AA/ 4D/	4d'/	.
4r	4aa'\	.
2r	2r	.
=246	=246	=246
4GG/ 4D/ 4F/	4B'/	.
4r	4gg'\	.
2r	2r	.
=247	=247	=247
4AA/ 4C/ 4E/	4c'/	pp
4r	4ccc'\	.
2r	2r	.
=248	=248	=248
1r	1r	.
=249	=249	=249
4FFF/ 4FF/	2r	.
4FF/ 4F/	.	.
2r	4A/ 4c/ 4f/ 4a/	ff
.	4a\ 4cc\ 4ff\ 4aa\	.
=250	=250	=250
4GGG/ 4GG/	2r	.
4GG/ 4G/	.	.
2r	4G/ 4c/ 4e/ 4g/	.
.	4g\ 4cc\ 4ee\ 4gg\	.
=251	=251	=251
4GGG/ 4GG/	2r	.
4GG/ 4G/	.	.
2r	4B/ 4d/ 4f/ 4b/	.
.	4b\ 4dd\ 4ff\ 4bb\	.
=252	=252	=252
16CC/LL	16c/LL	ff
16C/	16cc/	.
16BBB/	16B/	.
16BB/JJ	16b/JJ	.
16CC/LL	16c/LL	.
16C/	16cc/	.
16DD/	16d/	.
16D/JJ	16dd/JJ	.
16EE/LL	16e/LL	.
16E/	16ee/	.
16FF/	16f/	.
16F/JJ	16ff/JJ	.
16GG/LL	16g\LL	.
16G/	16gg\	.
16AA/	16a\	.
16A/JJ	16aa\JJ	.
=253	=253	=253
16BB\LL	16b\LL	.
16B\	16bb\	.
16C\	16cc\	.
16c\JJ	16ccc\JJ	.
16D\LL	16dd\LL	.
16d\	16ddd\	.
16E\	16ee\	.
16e\JJ	16eee\JJ	.
16F\LL	16ff\LL	.
16f\	16fff\	.
16E\	16ee\	.
16e\JJ	16eee\JJ	.
16F\LL	16ff\LL	.
16f\	16fff\	.
16D\	16dd\	.
16d\JJ	16ddd\JJ	.
=254	=254	=254
16C\LL	16cc\LL	.
16c\	16ccc\	.
16BB\	16b\	.
16B\JJ	16bb\JJ	.
16AA\LL	16a\LL	.
16A\	16aa\	.
16GG\	16g\	.
16G\JJ	16gg\JJ	.
16FF\LL	16f\LL	.
16F\	16ff\	.
16EE\	16e\	.
16E\JJ	16ee\JJ	.
16DD\LL	16d\LL	.
16D\	16dd\	.
16CC\	16c\	.
16C\JJ	16cc\JJ	.
=255	=255	=255
16BBB\LL	16B/LL	.
16BB\	16b/	.
16AAA\	16A/	.
16AA\JJ	16a/JJ	.
16GGG\LL	16G/LL	.
16GG\	16g/	.
16FFF#\	16F#/	.
16FF#X\JJ	16f#X/JJ	.
8GGG\ 8GG\L	16G/LL	.
.	16g/	.
8FFn\J	16Fn/	.
.	16fn/JJ	.
8EE\L	16E/LL	.
.	16e/	.
8DD\J	16D/	.
.	16d/JJ	.
=256	=256	=256
4CC\	4C/ 4c/	.
4r	4r	.
4GG\ 4BB\ 4D\ 4G\	4b\ 4dd\ 4ff\ 4gg\ 4bb\	ff
4r	4r	.
=257	=257	=257
4CC/ 4GG/ 4C/	4cc\ 4ee\ 4gg\ 4ccc\	.
4r	4r	.
2r;	2r;	.
==	==	==
*-	*-	*-
!!!ENC: Craig Stuart Sapp
!!!END: 2006/07/26/
!!!ONB: Initial proofreading done 2008/11/15/
!!!hum2abc: --spacing 1.75
